X: 57
T:Sir Malcolm Gereams(). GS.057
M:2/4
L:1/16
Q:110
S:George Spencer m/s, Leeds,1831
R:Misc.
O:England
A:Leeds
N: The change of time signature for the C music is not shown in ms.The
N:words 'George Spencer, Leeds' are written on the stave after the final
N:double bar..
H:1831
Z:vmp.Cherri Graebe
K:D major
"See note"D2DA, F2FD | A2AF d4 | A2A2 BAGF | AGFG E4 | D2DA, F2FD | A2AF
  d4 | cec
A BdB^G |! A2c2A2 z2 ||
gfed "cr"c2 ec | d2fd A4 | A2A2 A2Bc | dcde f4 | gfed c2ec | d2fd A2G2 |
! ^G
ABc edBG | A2c2A2 z2 ||
 M:3/8
 L:1/8
Q:70
f>ed | dcB |  AFG | A2d | fed | dcd | eaa | a3 |! f>ed | dcB | AFG | ABc
 |
d2d | ede | fdc | d3 ||
